svgs/light/diagram-subtask.svg

<svg xmlns="http://www.w3.org/2000/svg" viewBox="0 0 512 512"><!--! Font Awesome Pro 6.6.0 by @fontawesome - https://fontawesome.com License - https://fontawesome.com/license (Commercial License) Copyright 2024 Fonticons, Inc. --><path d="M448 64c17.7 0 32 14.3 32 32l0 64c0 17.7-14.3 32-32 32l-304 0-32 0-48 0c-17.7 0-32-14.3-32-32l0-64c0-17.7 14.3-32 32-32l384 0zM144 224l304 0c35.3 0 64-28.7 64-64l0-64c0-35.3-28.7-64-64-64L64 32C28.7 32 0 60.7 0 96l0 64c0 35.3 28.7 64 64 64l48 0 0 96c0 44.2 35.8 80 80 80l32 0 0 16c0 35.3 28.7 64 64 64l160 0c35.3 0 64-28.7 64-64l0-64c0-35.3-28.7-64-64-64l-160 0c-35.3 0-64 28.7-64 64l0 16-32 0c-26.5 0-48-21.5-48-48l0-96zm304 96c17.7 0 32 14.3 32 32l0 64c0 17.7-14.3 32-32 32l-160 0c-17.7 0-32-14.3-32-32l0-64c0-17.7 14.3-32 32-32l160 0z"/></svg>

<svg xmlns="http://www.w3.org/2000/svg" viewBox="0 0 512 512"><!--! Font Awesome Pro 6.4.2 by @fontawesome - https://fontawesome.com License - https://fontawesome.com/license (Commercial License) Copyright 2023 Fonticons, Inc. --><path d="M448 64c17.7 0 32 14.3 32 32v64c0 17.7-14.3 32-32 32H144 112 64c-17.7 0-32-14.3-32-32V96c0-17.7 14.3-32 32-32H448zM144 224H448c35.3 0 64-28.7 64-64V96c0-35.3-28.7-64-64-64H64C28.7 32 0 60.7 0 96v64c0 35.3 28.7 64 64 64h48v96c0 44.2 35.8 80 80 80h32v16c0 35.3 28.7 64 64 64H448c35.3 0 64-28.7 64-64V352c0-35.3-28.7-64-64-64H288c-35.3 0-64 28.7-64 64v16H192c-26.5 0-48-21.5-48-48V224zm304 96c17.7 0 32 14.3 32 32v64c0 17.7-14.3 32-32 32H288c-17.7 0-32-14.3-32-32V352c0-17.7 14.3-32 32-32H448z"/></svg>
